X: 42
T: The Pretty Girls of Ballymena
M: C
L: 1/8
B: "O'Neill's 42"
N: "Moderate" "collected by J. O'Neill"
Z: "Transcribed by Norbert Paap, norbertp@bdu.uva.nl"
K:G
B | .G.E.E.G .D.B,.D.E | .G.A.B.G A2zB/2-A/2 | .G.E.E.G DB,DE | GBAG G2zB/2-A/2 |
GEEG DB,DE | GABG A3 B/2-c/2 | dBcA BGFE | DcBA G2z ||
D | GABc d2 eB | d2 eB cAAG | FGAB c2 dA | c2 dA cBBA |
GABc d2 ed | cdef ~g2 (a/2g/2f/2e/2) | dgec B2 AG | FGAc BG G2 ||


